app/assets/v2/images/avatar/Wallpaper/rainbow.svg

<svg height="385" viewBox="0 0 398 385" width="398" xmlns="http://www.w3.org/2000/svg"><g fill="none"><g transform="translate(7)"><path d="m16.375757 288.765957c15.0886625-143.312777 87.748096-251.9836624 175.123744-251.9836624 87.375647 0 160.036079 108.6708854 175.12574 251.9836624h16.374759c-7.224305-79.797278-30.02555-152.419262-64.619336-205.3499937-35.150962-53.7928702-80.212253-83.4159633-126.881163-83.4159633-46.668911 0-91.7292027 29.6230931-126.8801646 83.4159633-34.5937868 52.9353297-57.39403287 125.5527157-64.6193364 205.3499937z" fill="#ed1c24"/><path d="m33.4560715 287.531915c6.1171855-49.84258 20.6226851-96.038815 42.3804357-133.616623 30.8412678-53.263758 72.0946168-82.5976546 116.1616918-82.5976546 44.068073 0 85.321422 29.3361946 116.16269 82.5976546 21.758748 37.575511 36.26325 83.774043 42.380435 133.616623h16.500343c-14.805724-143.790548-87.530711-252.9787235-175.043468-252.9787235-87.510762 0-160.2367464 109.1858785-175.0424698 252.9787235z" fill="#f26522"/><path d="m49.6106243 288.765957c5.776512-39.146801 17.8329248-75.416758 35.3658099-105.870684 28.0801278-48.760914 65.9110478-75.61532 106.5240638-75.61532 40.61202 0 78.443937 26.854406 106.524065 75.61532 17.533882 30.449309 29.590294 66.716956 35.36581 105.870684h16.695565c-6.029702-50.529505-20.583123-97.378679-42.494993-135.424153-30.823348-53.5241022-72.050399-83.0013785-116.091443-83.0013785-44.041045 0-85.268095 29.4795852-116.0914437 83.0013785-21.9108731 38.050091-36.465291 84.896957-42.4939958 135.424153z" fill="#ffde17"/><path d="m65.9708276 288.765957c5.2975718-28.066231 14.815649-54.537055 28.0266682-77.463813 25.3489612-43.999521 59.7991342-68.233081 97.0018122-68.233081 37.204671 0 71.654845 24.23356 97.003806 68.233081 13.210022 22.926758 22.729096 49.392965 28.026668 77.463813h17.100426c-5.711444-39.591949-17.840411-76.272453-35.555164-107.023863-28.093486-48.760343-65.941406-75.614434-106.574739-75.614434-40.631339 0-78.479259 26.854091-106.5727451 75.614434-17.7167477 30.749101-29.845714 67.434223-35.5551641 107.023863z" fill="#00a14b"/><path d="m83.6970488 290c4.5115893-17.339342 11.2500655-34.013739 19.9153872-49.062718 22.595825-39.236321 53.631692-60.847005 87.388866-60.847005 33.759168 0 64.795034 21.608375 87.39086 60.847005 8.665321 15.044361 15.403798 31.718759 19.916384 49.062718h17.865933c-5.248236-28.500244-14.831625-55.379687-28.215874-78.618099-25.337069-43.999445-59.771082-68.232965-96.9583-68.232965-37.185224 0-71.619237 24.23352-96.956306 68.232965-13.3842486 23.240721-22.9676377 50.122472-28.215874 78.618099z" fill="#21409a"/><path d="m103.789298 288.765957c2.713159-6.699976 5.861578-13.25691 9.45223-19.488534 19.836733-34.450433 47.453377-53.424472 77.759276-53.424472s57.923539 18.976346 77.761269 53.424472c3.590651 6.231624 6.73907 12.793172 9.450237 19.488534h20.009044c-4.508982-17.331345-11.242077-33.993615-19.899482-49.027035-22.57778-39.207785-53.588861-60.802752-87.321068-60.802752-33.731211 0-64.742292 21.59266-87.319076 60.802752-8.658401 15.038034-15.3924918 31.700304-19.900478 49.027035z" fill="#7f3f98"/></g><g transform="translate(0 252)"><path d="m103.999685 22.6544759c-1.40128 0-2.770667.190516-4.1191248.460061-5.4865191-13.78771755-15.9074171-23.1145369-27.8820814-23.1145369-10.6262065 0-20.0145825 7.36379836-25.8339803 18.649405-4.5357217-3.7341147-9.7910197-5.9074089-15.4140789-5.9074089-16.9837914 0-30.7504196 19.4947318-30.7504196 43.5392692 0 24.0487712 13.7666282 43.543503 30.7504196 43.543503 3.5530319 0 6.9525808-.8989536 10.1278851-2.4668301 5.0041439 12.3228608 14.375577 20.6420618 25.1373269 20.6420618 10.0461603 0 18.8953525-7.238199 24.098825-18.2274472 4.1251049 3.1922022 8.8541754 5.0084552 13.8862254 5.0084552 16.016051 0 28.999318-18.3812711 28.999318-41.0639716 0-22.6784668-12.983267-41.0625605-29.000315-41.0625605z" fill="#dbdada"/><path d="m106.096172 103.714979c-3.830961 0-7.6219532-1.393015-10.962303-4.0234667l-4.9470751-3.8995794-3.1395091 6.7533171c-4.2696125 9.183531-11.3849673 14.664839-19.0348979 14.664839-8.1585272 0-15.7644927-6.367249-19.8512503-16.611028l-2.5519753-6.3974996-4.8321662 2.4330955c-2.6648857 1.3397152-5.3957191 2.0196566-8.119558 2.0196566-11.7117081 0-21.5239232-11.8456748-24.02393971-27.6543135-.40168131 2.5440182-.63349739 5.1802319-.63349739 7.8942355 0 19.6016171 11.0612242 35.5499895 24.6584363 35.5499895 2.7238389 0 5.4546723-.678501 8.119558-2.019657l4.8321662-2.433095 2.5519753 6.3975c4.0867576 10.243779 11.6927232 16.611027 19.8512503 16.611027 7.6499306 0 14.7652854-5.481308 19.0348979-14.664839l3.1395092-6.753317 4.947075 3.89958c3.3403498 2.633332 7.1313418 4.023467 10.9623028 4.023467 12.62898 0 22.902829-14.813216 22.902829-33.020377 0-2.7240874-.254798-5.3603011-.689453-7.8942354-2.464045 14.3997769-11.474896 25.1247004-22.214375 25.1247004z" fill="#6d6e71"/></g><g transform="translate(265 252)"><path d="m29.0000974 22.6553452c1.4012694 0 2.7696498.1876891 4.1190942.46005 5.4874746-13.78738774 15.9072979-23.1153952 27.8828691-23.1153952 10.6261268 0 20.0124392 7.36362223 25.8327901 18.6475477 4.5356878-3.7326141 9.7909463-5.9044452 15.4149602-5.9044452 16.981671 0 30.750189 19.4928543 30.750189 43.5382279 0 24.0481959-13.767522 43.5410502-30.750189 43.5410502-3.5520088 0-6.9535255-.8961096-10.1278093-2.4639487-5.0041065 12.3197431-14.3754693 20.6415681-25.1381352 20.6415681-10.0440918 0-18.8952109-7.238026-24.0986444-18.2298336-4.125074 3.1949486-8.8551057 5.0111576-13.8851247 5.0111576-16.0159312 0-29.0000974-18.3836537-29.0000974-41.0629892 0-22.6793356 12.9841662-41.0629896 29.0000974-41.0629896z" fill="#dbdada"/><path d="m31.9036392 103.711338c3.830929 0 7.6208907-1.390102 10.9622121-4.0204923l4.9470342-3.8994888 3.1384841 6.7531601c4.2695772 9.183318 11.3858724 14.664498 19.0357399 14.664498 8.1574606 0 15.7643625-6.367101 19.8490879-16.610641l2.5529534-6.3973517 4.8321264 2.433039c2.6658629 1.3396841 5.3976728 2.0167287 8.1204898 2.0167287 11.711612 0 21.523746-11.8453997 24.023742-27.65079.401678 2.5439591.634491 5.1801115.634491 7.8926115 0 19.6040428-11.063131 35.5491635-24.658233 35.5491635-2.722817 0-5.4546269-.675604-8.1204898-2.016729l-4.8321264-2.433039-2.5529534 6.397352c-4.0847254 10.243541-11.6916273 16.610641-19.8490879 16.610641-7.6498675 0-14.7651635-5.48118-19.0357399-14.664498l-3.1384841-6.75316-4.9470342 3.899489c-3.3413214 2.63039-7.1312831 4.020492-10.9622121 4.020492-12.628876 0-22.9036392-14.80999-22.9036392-33.0196092 0-2.7240242.25579494-5.3572956.6884481-7.8926116 2.4650239 14.3994424 11.4758004 25.1212358 22.2151911 25.1212358z" fill="#6d6e71"/></g></g></svg>

<?xml version="1.0" encoding="UTF-8"?>
<svg width="398px" height="385px" viewBox="0 0 398 385" version="1.1" xmlns="http://www.w3.org/2000/svg" xmlns:xlink="http://www.w3.org/1999/xlink">
    <!-- Generator: Sketch 51.3 (57544) - http://www.bohemiancoding.com/sketch -->
    <title>rainbow</title>
    <desc>Created with Sketch.</desc>
    <defs></defs>
    <g id="Page-1" stroke="none" stroke-width="1" fill="none" fill-rule="evenodd">
        <g id="rainbow" fill-rule="nonzero">
            <g id="Group" transform="translate(7.000000, 0.000000)">
                <path d="M16.375757,288.765957 C31.4644195,145.45318 104.123853,36.7822946 191.499501,36.7822946 C278.875148,36.7822946 351.53558,145.45318 366.625241,288.765957 L383,288.765957 C375.775695,208.968679 352.97445,136.346695 318.380664,83.4159633 C283.229702,29.6230931 238.168411,0 191.499501,0 C144.83059,0 99.7702983,29.6230931 64.6193364,83.4159633 C30.0255496,136.351293 7.22530353,208.968679 0,288.765957 L16.375757,288.765957 Z" id="Shape" fill="#ED1C24"></path>
                <path d="M33.4560715,287.531915 C39.573257,237.689335 54.0787566,191.4931 75.8365072,153.915292 C106.677775,100.651534 147.931124,71.3176374 191.998199,71.3176374 C236.066272,71.3176374 277.319621,100.653832 308.160889,153.915292 C329.919637,191.490803 344.424139,237.689335 350.541324,287.531915 L367.041667,287.531915 C352.235943,143.741367 279.510956,34.5531915 191.998199,34.5531915 C104.487437,34.5531915 31.7614526,143.73907 16.9557292,287.531915 L33.4560715,287.531915 Z" id="Shape" fill="#F26522"></path>
                <path d="M49.6106243,288.765957 C55.3871363,249.619156 67.4435491,213.349199 84.9764342,182.895273 C113.056562,134.134359 150.887482,107.279953 191.500498,107.279953 C232.112518,107.279953 269.944435,134.134359 298.024563,182.895273 C315.558445,213.344582 327.614857,249.612229 333.390373,288.765957 L350.085938,288.765957 C344.056236,238.236452 329.502815,191.387278 307.590945,153.341804 C276.767597,99.8177018 235.540546,70.3404255 191.499502,70.3404255 C147.458457,70.3404255 106.231407,99.8200107 75.4080583,153.341804 C53.4971852,191.391895 38.9427673,238.238761 32.9140625,288.765957 L49.6106243,288.765957 Z" id="Shape" fill="#FFDE17"></path>
                <path d="M65.9708276,288.765957 C71.2683994,260.699726 80.7864766,234.228902 93.9974958,211.302144 C119.346457,167.302623 153.79663,143.069063 190.999308,143.069063 C228.203979,143.069063 262.654153,167.302623 288.003114,211.302144 C301.213136,234.228902 310.73221,260.695109 316.029782,288.765957 L333.130208,288.765957 C327.418764,249.174008 315.289797,212.493504 297.575044,181.742094 C269.481558,132.981751 231.633638,106.12766 191.000305,106.12766 C150.368966,106.12766 112.521046,132.981751 84.4275599,181.742094 C66.7108122,212.491195 54.5818459,249.176317 48.8723958,288.765957 L65.9708276,288.765957 Z" id="Shape" fill="#00A14B"></path>
                <path d="M83.6970488,290 C88.2086381,272.660658 94.9471143,255.986261 103.612436,240.937282 C126.208261,201.700961 157.244128,180.090277 191.001302,180.090277 C224.76047,180.090277 255.796336,201.698652 278.392162,240.937282 C287.057483,255.981643 293.79596,272.656041 298.308546,290 L316.174479,290 C310.926243,261.499756 301.342854,234.620313 287.958605,211.381901 C262.621536,167.382456 228.187523,143.148936 191.000305,143.148936 C153.815081,143.148936 119.381068,167.382456 94.043999,211.381901 C80.6597504,234.622622 71.0763613,261.504373 65.828125,290 L83.6970488,290 Z" id="Shape" fill="#21409A"></path>
                <path d="M103.789298,288.765957 C106.502457,282.065981 109.650876,275.509047 113.241528,269.277423 C133.078261,234.82699 160.694905,215.852951 191.000804,215.852951 C221.306703,215.852951 248.924343,234.829297 268.762073,269.277423 C272.352724,275.509047 275.501143,282.070595 278.21231,288.765957 L298.221354,288.765957 C293.712372,271.434612 286.979277,254.772342 278.321872,239.738922 C255.744092,200.531137 224.733011,178.93617 191.000804,178.93617 C157.269593,178.93617 126.258512,200.52883 103.681728,239.738922 C95.023327,254.776956 88.2892362,271.439226 83.78125,288.765957 L103.789298,288.765957 Z" id="Shape" fill="#7F3F98"></path>
            </g>
            <g id="Group-2" transform="translate(0.000000, 252.000000)">
                <path d="M103.999685,22.6544759 C102.598405,22.6544759 101.229018,22.8449919 99.8805602,23.1145369 C94.3940411,9.32681935 83.9731431,0 71.9984788,0 C61.3722723,0 51.9838963,7.36379836 46.1644985,18.649405 C41.6287768,14.9152903 36.3734788,12.7419961 30.7504196,12.7419961 C13.7666282,12.7419961 0,32.2367279 0,56.2812653 C0,80.3300365 13.7666282,99.8247683 30.7504196,99.8247683 C34.3034515,99.8247683 37.7030004,98.9258147 40.8783047,97.3579382 C45.8824486,109.680799 55.2538817,118 66.0156316,118 C76.0617919,118 84.9109841,110.761801 90.1144566,99.7725528 C94.2395615,102.964755 98.968632,104.781008 104.000682,104.781008 C120.016733,104.781008 133,86.3997369 133,63.7170364 C133,41.0385696 120.016733,22.6544759 103.999685,22.6544759 Z" id="Shape" fill="#DBDADA"></path>
                <path d="M106.096172,103.714979 C102.265211,103.714979 98.4742188,102.321964 95.133869,99.6915123 L90.1867939,95.7919329 L87.0472848,102.54525 C82.7776723,111.728781 75.6623175,117.210089 68.0123869,117.210089 C59.8538597,117.210089 52.2478942,110.84284 48.1611366,100.599061 L45.6091613,94.2015614 L40.7769951,96.6346569 C38.1121094,97.9743721 35.381276,98.6543135 32.6574371,98.6543135 C20.945729,98.6543135 11.1335139,86.8086387 8.63349739,71 C8.23181608,73.5440182 8,76.1802319 8,78.8942355 C8,98.4958526 19.0612242,114.444225 32.6584363,114.444225 C35.3822752,114.444225 38.1131086,113.765724 40.7779943,112.424568 L45.6101605,109.991473 L48.1621358,116.388973 C52.2488934,126.632752 59.854859,133 68.0133861,133 C75.6633167,133 82.7786715,127.518692 87.048284,118.335161 L90.1877932,111.581844 L95.1348682,115.481424 C98.475218,118.114756 102.26621,119.504891 106.097171,119.504891 C118.726151,119.504891 129,104.691675 129,86.484514 C129,83.7604266 128.745202,81.1242129 128.310547,78.5902786 C125.846502,92.9900555 116.835651,103.714979 106.096172,103.714979 Z" id="Shape" fill="#6D6E71"></path>
            </g>
            <g id="Group-3" transform="translate(265.000000, 252.000000)">
                <path d="M29.0000974,22.6553452 C30.4013668,22.6553452 31.7697472,22.8430343 33.1191916,23.1153952 C38.6066662,9.32800746 49.0264895,0 61.0020607,0 C71.6281875,0 81.0144999,7.36362223 86.8348508,18.6475477 C91.3705386,14.9149336 96.6257971,12.7431025 102.249811,12.7431025 C119.231482,12.7431025 133,32.2359568 133,56.2813304 C133,80.3295263 119.232478,99.8223806 102.249811,99.8223806 C98.6978022,99.8223806 95.2962855,98.926271 92.1220017,97.3584319 C87.1178952,109.678175 77.7465324,118 66.9838665,118 C56.9397747,118 48.0886556,110.761974 42.8852221,99.7701664 C38.7601481,102.965115 34.0301164,104.781324 29.0000974,104.781324 C12.9841662,104.781324 0,86.3976703 0,63.7183348 C0,41.0389992 12.9841662,22.6553452 29.0000974,22.6553452 Z" id="Shape" fill="#DBDADA"></path>
                <path d="M31.9036392,103.711338 C35.7345682,103.711338 39.5245299,102.321236 42.8658513,99.6908457 L47.8128855,95.7913569 L50.9513696,102.544517 C55.2209468,111.727835 62.337242,117.209015 69.9871095,117.209015 C78.1445701,117.209015 85.751472,110.841914 89.8361974,100.598374 L92.3891508,94.2010223 L97.2212772,96.6340613 C99.8871401,97.9737454 102.61895,98.65079 105.341767,98.65079 C117.053379,98.65079 126.865513,86.8053903 129.365509,71 C129.767187,73.5439591 130,76.1801115 130,78.8926115 C130,98.4966543 118.936869,114.441775 105.341767,114.441775 C102.61895,114.441775 99.8871401,113.766171 97.2212772,112.425046 L92.3891508,109.992007 L89.8361974,116.389359 C85.751472,126.6329 78.1445701,133 69.9871095,133 C62.337242,133 55.221946,127.51882 50.9513696,118.335502 L47.8128855,111.582342 L42.8658513,115.481831 C39.5245299,118.112221 35.7345682,119.502323 31.9036392,119.502323 C19.2747632,119.502323 9,104.692333 9,86.4827138 C9,83.7586896 9.25579494,81.1254182 9.6884481,78.5901022 C12.153472,92.9895446 21.1642485,103.711338 31.9036392,103.711338 Z" id="Shape" fill="#6D6E71"></path>
            </g>
        </g>
    </g>
</svg>
